X:1
T:Sittin' on Top of the World
M:4/4
L:1/8
K:G
 z4 z D/2D/2 FG| A4- AA/2-A/2 BA| F4- FA BA| F D- D3 F/2F/2 AF| D4- DA, B,D|\
 F4- FF =F^F| D A,4 A,B, D| F D2 FD A,2 B,| D8-| D2 z6|

